public/images/ai43.svg

<svg width="100" height="100" viewBox="0 0 100 100" fill="none" xmlns="http://www.w3.org/2000/svg">
<path d="M10.5831 77.9012H8.71258L7.79042 75.2763H3.75075L2.86003 77.9012H1L4.84581 67.6221H6.76347L10.5831 77.9012ZM7.33982 73.8904L5.91467 69.785C5.85485 69.5731 5.80934 69.3574 5.77844 69.1393H5.74701C5.71686 69.3579 5.66956 69.5739 5.60554 69.785L4.19611 73.8904H7.33982Z" fill="#465154"/>
<path d="M17.5935 71.2497L13.6325 76.6045H17.5778V77.9012H11.2904V77.2765L15.3353 71.8482H11.6677V70.5515H17.5935V71.2497Z" fill="#465154"/>
<path d="M25.2957 77.9012H23.6347V76.741H23.6085C23.403 77.1574 23.0811 77.5051 22.6821 77.7418C22.2831 77.9786 21.8241 78.0941 21.3608 78.0744C19.6143 78.0744 18.741 77.0245 18.741 74.9245V70.5305H20.402V74.7303C20.402 76.0497 20.9102 76.7095 21.9267 76.7095C22.1555 76.718 22.3833 76.6753 22.5936 76.5845C22.8039 76.4937 22.9913 76.357 23.1422 76.1845C23.4719 75.7839 23.6417 75.2752 23.619 74.7566V70.5305H25.2799L25.2957 77.9012Z" fill="#465154"/>
<path d="M31.515 72.1369C31.2611 71.9639 30.9569 71.8807 30.6505 71.9007C30.4063 71.9017 30.1662 71.963 29.9514 72.0793C29.7366 72.1956 29.5538 72.3633 29.4192 72.5674C29.0639 73.1039 28.8912 73.741 28.9267 74.3838V77.9012H27.2605V70.5515H28.9214V72.0634H28.9476C29.0784 71.5981 29.3382 71.1794 29.6969 70.856C30.0061 70.5769 30.4072 70.4218 30.8234 70.4203C31.06 70.407 31.2961 70.4539 31.5097 70.5567L31.515 72.1369Z" fill="#465154"/>
<path d="M38.8765 74.6778H33.878C33.8677 74.9697 33.9184 75.2605 34.0266 75.5317C34.1349 75.8029 34.2984 76.0485 34.5068 76.2528C34.964 76.6417 35.5532 76.8391 36.152 76.804C36.9282 76.8074 37.685 76.5608 38.3107 76.1005V77.4445C37.5036 77.9001 36.5847 78.1184 35.6595 78.0744C35.188 78.1008 34.7164 78.0249 34.2769 77.8518C33.8374 77.6788 33.4404 77.4127 33.113 77.0717C32.4569 76.2849 32.1268 75.2759 32.1909 74.2526C32.1482 73.2221 32.5136 72.2164 33.2074 71.4545C33.5254 71.105 33.9144 70.8277 34.3481 70.6412C34.7819 70.4547 35.2504 70.3633 35.7223 70.373C36.1581 70.3485 36.5938 70.4232 36.9966 70.5914C37.3995 70.7596 37.7592 71.0169 38.0487 71.3442C38.6379 72.1132 38.9301 73.0696 38.8713 74.0374L38.8765 74.6778ZM37.2732 73.5019C37.2993 73.001 37.1491 72.5068 36.8488 72.1054C36.7114 71.9346 36.5362 71.7983 36.337 71.7071C36.1378 71.616 35.9202 71.5726 35.7014 71.5805C35.4732 71.5769 35.2469 71.6218 35.0374 71.7123C34.8279 71.8028 34.6399 71.9368 34.4858 72.1054C34.1401 72.4845 33.9252 72.9648 33.8728 73.4756L37.2732 73.5019Z" fill="#465154"/>
<path d="M55.7111 77.9012H54.0187V71.2392C54.0187 70.6932 54.0519 70.0265 54.1183 69.2391H54.0921C54.0234 69.5692 53.9306 69.8938 53.8144 70.2103L50.7493 77.9064H49.5704L46.5 70.247C46.3831 69.9044 46.292 69.5534 46.2276 69.1971H46.2014C46.2398 69.61 46.259 70.282 46.259 71.213V77.8592H44.6871V67.6221H47.0868L49.7799 74.4468C49.9385 74.8301 50.0733 75.2228 50.1834 75.6228H50.2201C50.3982 75.0803 50.5414 74.6778 50.6497 74.4153L53.3952 67.6221H55.7111V77.9012Z" fill="#465154"/>
<path d="M63.5337 77.9012H61.9199V76.7515H61.8937C61.6851 77.1602 61.3653 77.5013 60.9712 77.7354C60.5771 77.9696 60.1249 78.0871 59.6669 78.0744C59.0474 78.1103 58.4389 77.8989 57.9746 77.4864C57.7669 77.2824 57.6049 77.0365 57.4992 76.7649C57.3935 76.4934 57.3466 76.2025 57.3615 75.9115C57.3615 74.5116 58.1597 73.7031 59.756 73.4861L61.9356 73.1764C61.9356 72.1264 61.4396 71.6014 60.4476 71.6014C59.5759 71.6008 58.7345 71.9223 58.0846 72.5044V71.045C58.8979 70.5758 59.8237 70.3381 60.762 70.3572C62.6133 70.3572 63.5389 71.2707 63.5389 73.0976L63.5337 77.9012ZM61.9304 74.2893L60.39 74.5046C60.0081 74.5336 59.6383 74.6523 59.3106 74.851C59.1816 74.9584 59.081 75.096 59.0179 75.2518C58.9548 75.4075 58.9312 75.5764 58.9491 75.7435C58.9442 75.8878 58.9712 76.0313 59.0283 76.1639C59.0854 76.2964 59.1711 76.4146 59.2792 76.51C59.5282 76.718 59.8461 76.8248 60.1699 76.8092C60.4048 76.8168 60.6385 76.7738 60.8554 76.6833C61.0723 76.5927 61.2674 76.4566 61.4274 76.2842C61.7721 75.923 61.9604 75.44 61.9514 74.9403L61.9304 74.2893Z" fill="#465154"/>
<path d="M70.6857 77.5652C70.0465 77.9249 69.3228 78.1062 68.5899 78.0902C68.1065 78.1084 67.6245 78.0269 67.1739 77.8508C66.7233 77.6747 66.3135 77.4078 65.9701 77.0665C65.634 76.7146 65.3721 76.2985 65.2002 75.843C65.0282 75.3875 64.9497 74.9019 64.9693 74.4153C64.9449 73.8811 65.0278 73.3475 65.2132 72.8461C65.3986 72.3446 65.6827 71.8857 66.0487 71.4964C66.4274 71.1239 66.8789 70.8336 67.3748 70.6439C67.8706 70.4542 68.4002 70.3691 68.9304 70.394C69.5392 70.3809 70.1436 70.501 70.7014 70.7457V72.3207C70.2346 71.9541 69.6597 71.7529 69.0667 71.7484C68.7452 71.7382 68.4253 71.7966 68.1281 71.9197C67.8309 72.0428 67.5633 72.2278 67.3429 72.4624C66.8817 72.9725 66.639 73.6437 66.667 74.3313C66.6491 74.6585 66.6959 74.986 66.8047 75.295C66.9135 75.604 67.0821 75.8885 67.3009 76.132C67.5228 76.3555 67.789 76.5299 68.0823 76.6438C68.3756 76.7578 68.6895 76.8087 69.0038 76.7935C69.6253 76.7849 70.2242 76.5583 70.6961 76.153L70.6857 77.5652Z" fill="#465154"/>
<path d="M78.8069 77.9012H77.1459V73.8798C77.1459 72.4239 76.6604 71.6959 75.6893 71.6959C75.449 71.6959 75.2121 71.753 74.9981 71.8625C74.784 71.972 74.5989 72.1308 74.4581 72.3259C74.1014 72.7876 73.9161 73.3593 73.9341 73.9428V77.8959H72.2627V67.0237H73.9341V71.7747H73.9603C74.1888 71.3444 74.5323 70.9863 74.9525 70.7406C75.3726 70.4949 75.8527 70.3712 76.339 70.3835C77.9668 70.3835 78.7807 71.381 78.7807 73.3759L78.8069 77.9012Z" fill="#465154"/>
<path d="M81.5105 69.0081C81.2524 69.0122 81.0028 68.9163 80.8136 68.7403C80.7192 68.6553 80.6444 68.5507 80.5947 68.4337C80.5449 68.3167 80.5212 68.1902 80.5254 68.0631C80.5222 67.9353 80.5463 67.8084 80.596 67.6907C80.6457 67.573 80.7199 67.4673 80.8136 67.3806C81.001 67.2013 81.2514 67.1033 81.5105 67.1076C81.7762 67.1011 82.0338 67.1991 82.2283 67.3806C82.3233 67.4666 82.3986 67.572 82.4493 67.6898C82.4999 67.8076 82.5246 67.9349 82.5217 68.0631C82.5223 68.1879 82.4964 68.3114 82.4458 68.4254C82.3953 68.5394 82.3211 68.6414 82.2283 68.7246C82.0358 68.9104 81.7777 69.0123 81.5105 69.0081ZM82.3331 77.9012H80.6721V70.5515H82.3331V77.9012Z" fill="#465154"/>
<path d="M90.8578 77.9012H89.1968V73.7591C89.1968 72.3872 88.7113 71.7012 87.7402 71.7012C87.5019 71.6952 87.2652 71.7435 87.0483 71.8427C86.8313 71.9418 86.6397 72.0891 86.488 72.2734C86.1502 72.6744 85.9745 73.1876 85.9955 73.7119V77.9117H84.3083V70.562H85.9798V71.7799H86.006C86.2344 71.3496 86.578 70.9916 86.9981 70.7459C87.4183 70.5001 87.8984 70.3765 88.3847 70.3888C88.7288 70.3668 89.0733 70.4256 89.3907 70.5605C89.7082 70.6954 89.9898 70.9026 90.2133 71.1657C90.6747 71.8219 90.8967 72.6171 90.842 73.4179L90.8578 77.9012Z" fill="#465154"/>
<path d="M98.9791 74.6778H93.9806C93.9703 74.9697 94.0209 75.2605 94.1291 75.5317C94.2374 75.8029 94.4009 76.0485 94.6093 76.2528C95.0665 76.6417 95.6558 76.8391 96.2545 76.804C97.0307 76.807 97.7873 76.5605 98.4132 76.1005V77.4445C97.6062 77.9001 96.6873 78.1184 95.762 78.0744C95.2905 78.1008 94.8189 78.0249 94.3795 77.8518C93.94 77.6788 93.543 77.4127 93.2156 77.0717C92.5594 76.2849 92.2294 75.2759 92.2934 74.2526C92.2499 73.2229 92.6133 72.2175 93.3047 71.4545C93.6235 71.1046 94.0134 70.8271 94.448 70.6406C94.8827 70.4541 95.3521 70.3629 95.8249 70.373C96.2606 70.3485 96.6963 70.4232 97.0992 70.5914C97.502 70.7596 97.8617 71.0169 98.1512 71.3442C98.7405 72.1132 99.0326 73.0696 98.9738 74.0374L98.9791 74.6778ZM97.4072 73.5019C97.4328 73.001 97.2827 72.507 96.9828 72.1054C96.8454 71.9346 96.6701 71.7983 96.471 71.7071C96.2718 71.616 96.0542 71.5726 95.8353 71.5805C95.6072 71.5769 95.3809 71.6218 95.1714 71.7123C94.9618 71.8028 94.7738 71.9368 94.6198 72.1054C94.2741 72.4845 94.0591 72.9648 94.0067 73.4756L97.4072 73.5019Z" fill="#465154"/>
<path d="M28.5913 95.5404H22.9012V85.2509H24.604V94.102H28.5861L28.5913 95.5404Z" fill="#465154"/>
<path d="M36.0262 92.296H31.0224C31.0122 92.5879 31.0628 92.8788 31.171 93.1499C31.2793 93.4211 31.4428 93.6667 31.6512 93.871C32.1084 94.2599 32.6976 94.4573 33.2964 94.4222C34.0725 94.4253 34.8292 94.1787 35.4551 93.7187V95.0627C34.648 95.5183 33.7291 95.7366 32.8039 95.6926C32.3333 95.7183 31.8627 95.6419 31.4242 95.4689C30.9857 95.2959 30.5895 95.0302 30.2627 94.6899C29.6065 93.9031 29.2765 92.8941 29.3405 91.8708C29.3011 90.8515 29.6602 89.8571 30.3413 89.0989C30.6602 88.7491 31.05 88.4716 31.4847 88.2851C31.9193 88.0986 32.3888 88.0073 32.8615 88.0175C33.2973 87.993 33.7329 88.0677 34.1358 88.2359C34.5387 88.404 34.8984 88.6614 35.1879 88.9887C35.7771 89.7577 36.0692 90.7141 36.0105 91.6818L36.0262 92.296ZM34.4229 91.1201C34.4485 90.6192 34.2984 90.1252 33.9985 89.7237C33.8611 89.5529 33.6858 89.4165 33.4866 89.3254C33.2875 89.2342 33.0698 89.1909 32.851 89.1987C32.6229 89.1951 32.3966 89.2401 32.187 89.3305C31.9775 89.421 31.7895 89.555 31.6355 89.7237C31.2897 90.1027 31.0748 90.5831 31.0224 91.0938L34.4229 91.1201Z" fill="#465154"/>
<path d="M43.1782 95.5404H41.5644V94.3959H41.5382C41.3296 94.8046 41.0097 95.1458 40.6156 95.3799C40.2216 95.614 39.7694 95.7316 39.3114 95.7189C38.6919 95.7547 38.0834 95.5433 37.619 95.1309C37.4114 94.9269 37.2494 94.6809 37.1437 94.4094C37.038 94.1379 36.9911 93.847 37.006 93.556C37.006 92.156 37.8042 91.3476 39.4005 91.1306L41.5801 90.8209C41.5801 89.7709 41.0841 89.2459 40.0921 89.2459C39.2203 89.2453 38.379 89.5668 37.7291 90.1489V88.6895C38.5424 88.2203 39.4682 87.9825 40.4065 88.0017C42.2612 88.0017 43.1869 88.9152 43.1834 90.7421L43.1782 95.5404ZM41.5749 91.9286L40.0345 92.1438C39.6525 92.1727 39.2827 92.2914 38.9551 92.4903C38.826 92.5976 38.7255 92.7353 38.6624 92.891C38.5993 93.0467 38.5757 93.2156 38.5936 93.3827C38.5893 93.5274 38.6171 93.6712 38.6751 93.8038C38.7331 93.9364 38.8198 94.0543 38.9289 94.1492C39.1777 94.3577 39.4957 94.4645 39.8196 94.4484C40.0544 94.4557 40.2881 94.4126 40.505 94.322C40.7218 94.2315 40.9169 94.0956 41.0771 93.9235C41.4122 93.5581 41.591 93.0755 41.5749 92.5795V91.9286Z" fill="#465154"/>
<path d="M49.3189 89.7762C49.065 89.6031 48.7608 89.52 48.4544 89.5399C48.2112 89.5397 47.9716 89.5995 47.7569 89.7139C47.5422 89.8284 47.3589 89.994 47.2231 90.1961C46.8678 90.7326 46.6951 91.3697 46.7306 92.0126V95.5299H45.0644V88.1802H46.7253V89.6922H46.7515C46.8826 89.2269 47.1423 88.8083 47.5008 88.4847C47.8098 88.2052 48.211 88.05 48.6273 88.049C48.8639 88.0357 49.1 88.0827 49.3136 88.1855L49.3189 89.7762Z" fill="#465154"/>
<path d="M56.9738 95.5404H55.3129V91.3983C55.3129 90.0264 54.8273 89.3404 53.8563 89.3404C53.6179 89.3344 53.3813 89.3828 53.1643 89.4819C52.9474 89.581 52.7558 89.7283 52.604 89.9126C52.2663 90.3136 52.0906 90.8268 52.1115 91.3511V95.5509H50.4401V88.2012H52.1115V89.4192H52.1377C52.3662 88.9888 52.7098 88.6308 53.1299 88.3851C53.55 88.1394 54.0302 88.0157 54.5165 88.028C54.8606 88.006 55.2051 88.0648 55.5225 88.1997C55.8399 88.3346 56.1216 88.5418 56.3451 88.8049C56.8064 89.4611 57.0284 90.2563 56.9738 91.0571V95.5404Z" fill="#465154"/>
<path d="M59.6826 86.6473C59.4246 86.6514 59.1749 86.5555 58.9858 86.3796C58.8913 86.2946 58.8166 86.1899 58.7668 86.0729C58.717 85.9559 58.6934 85.8294 58.6976 85.7023C58.6944 85.5746 58.7184 85.4476 58.7681 85.3299C58.8178 85.2122 58.892 85.1065 58.9858 85.0199C59.1732 84.8406 59.4236 84.7425 59.6826 84.7469C59.9483 84.7403 60.206 84.8383 60.4005 85.0199C60.4954 85.1058 60.5708 85.2113 60.6214 85.329C60.6721 85.4468 60.6968 85.5741 60.6939 85.7023C60.6945 85.8271 60.6686 85.9506 60.618 86.0646C60.5674 86.1786 60.4933 86.2806 60.4005 86.3638C60.208 86.5496 59.9499 86.6516 59.6826 86.6473ZM60.5053 95.5404H58.8443V88.1907H60.5053V95.5404Z" fill="#465154"/>
<path d="M69.0352 95.5404H67.3743V91.3983C67.3743 90.0264 66.8888 89.3404 65.9177 89.3404C65.6793 89.3344 65.4427 89.3828 65.2257 89.4819C65.0088 89.581 64.8172 89.7283 64.6655 89.9126C64.3277 90.3136 64.152 90.8268 64.1729 91.3511V95.5509H62.5015V88.2012H64.1729V89.4192H64.1991C64.4276 88.9888 64.7712 88.6308 65.1913 88.3851C65.6114 88.1394 66.0916 88.0157 66.5779 88.028C66.922 88.006 67.2665 88.0648 67.5839 88.1997C67.9013 88.3346 68.183 88.5418 68.4065 88.8049C68.8674 89.4613 69.0894 90.2564 69.0352 91.0571V95.5404Z" fill="#465154"/>
<path d="M77.6647 94.9524C77.6647 97.6508 76.3112 99 73.6041 99C72.7462 99.0184 71.8943 98.8537 71.1048 98.517V97.0208C71.7932 97.4462 72.5809 97.6833 73.3892 97.7086C75.1358 97.7086 76.009 96.8493 76.009 95.1309V94.3277H75.9828C75.7499 94.718 75.4282 95.0476 75.0441 95.2898C74.66 95.5319 74.2242 95.6798 73.7722 95.7212C73.3202 95.7626 72.8649 95.6966 72.4432 95.5283C72.0216 95.36 71.6456 95.0944 71.3458 94.7529C70.7672 94.0047 70.4754 93.0734 70.5232 92.128C70.4669 91.064 70.7777 90.013 71.4035 89.1514C71.691 88.7884 72.0602 88.4987 72.481 88.3062C72.9017 88.1137 73.362 88.0237 73.8241 88.0437C74.259 88.0211 74.6916 88.1207 75.073 88.3312C75.4544 88.5418 75.7696 88.855 75.9828 89.2354H76.009V88.217H77.6699L77.6647 94.9524ZM76.0195 92.1753V91.2461C76.0258 90.7531 75.8375 90.2776 75.4955 89.9231C75.3319 89.7497 75.1332 89.6131 74.9128 89.5226C74.6923 89.4321 74.4552 89.3896 74.2171 89.3982C73.9328 89.3858 73.6497 89.4429 73.3923 89.5646C73.1349 89.6862 72.9109 89.8687 72.7395 90.0964C72.3543 90.6734 72.1701 91.3618 72.2156 92.0545C72.1877 92.675 72.3726 93.2864 72.7395 93.787C72.8978 93.9958 73.1034 94.1638 73.3394 94.277C73.5755 94.3902 73.835 94.4454 74.0966 94.4379C74.3612 94.4468 74.6245 94.3956 74.8667 94.2884C75.1089 94.1811 75.3239 94.0205 75.4955 93.8185C75.8707 93.3567 76.0561 92.7692 76.0142 92.1753H76.0195Z" fill="#465154"/>
<path d="M56.9319 2H43.4401V22.1486H56.9319V2Z" fill="#047FDA"/>
<path d="M43.4401 22.1486H56.9371L28.5808 56.2039L24.9865 42.6857L43.4401 22.1486Z" fill="#5BE6FF"/>
<path d="M60.4371 26.0702L52.2897 35.861L71.7964 56.2039L75.3907 42.6857L60.4371 26.0702Z" fill="#5BE6FF"/>
<path d="M28.5808 56.2039H71.7964L58.97 42.8117H39.72L28.5808 56.2039Z" fill="#047FDA"/>
</svg>

<svg xmlns="http://www.w3.org/2000/svg" width="100" height="100" fill="none"><path fill="#465154" d="M10.583 77.901h-1.87l-.923-2.625H3.75l-.89 2.625H1l3.846-10.279h1.917zm-3.243-4.01-1.425-4.106a5 5 0 0 1-.137-.646h-.031q-.045.329-.141.646l-1.41 4.105zM17.594 71.25l-3.962 5.355h3.946V77.9H11.29v-.624l4.045-5.429h-3.667v-1.296h5.926zM25.296 77.901h-1.661v-1.16h-.027a2.4 2.4 0 0 1-2.247 1.333q-2.62 0-2.62-3.15V70.53h1.661v4.2q0 1.98 1.525 1.98a1.54 1.54 0 0 0 1.215-.525c.33-.401.5-.91.477-1.428V70.53h1.66zM31.515 72.137a1.38 1.38 0 0 0-.864-.236 1.48 1.48 0 0 0-1.232.666 3 3 0 0 0-.492 1.817V77.9H27.26v-7.35h1.66v1.512h.027c.13-.465.39-.884.749-1.207.31-.28.71-.434 1.126-.436.237-.013.473.034.687.137zM38.877 74.678h-4.999a2.1 2.1 0 0 0 .629 1.575 2.33 2.33 0 0 0 1.645.551 3.6 3.6 0 0 0 2.159-.704v1.345a4.9 4.9 0 0 1-2.651.63 3.27 3.27 0 0 1-2.547-1.003 4 4 0 0 1-.922-2.82 3.92 3.92 0 0 1 1.016-2.797 3.3 3.3 0 0 1 2.515-1.082 2.89 2.89 0 0 1 2.327.971c.589.77.881 1.726.822 2.693zm-1.604-1.176c.026-.501-.124-.995-.424-1.397a1.41 1.41 0 0 0-1.148-.525 1.6 1.6 0 0 0-1.215.525c-.346.38-.56.86-.613 1.37zM55.711 77.901H54.02V71.24q0-.82.1-2h-.027q-.103.496-.278.971l-3.065 7.696H49.57l-3.07-7.659a7 7 0 0 1-.272-1.05H46.2q.058.62.058 2.016v6.646h-1.572V67.622h2.4l2.693 6.825q.237.575.403 1.176h.037q.267-.814.43-1.208l2.745-6.793h2.316zM63.534 77.901H61.92v-1.15h-.026a2.43 2.43 0 0 1-2.227 1.323 2.34 2.34 0 0 1-1.692-.588 2.06 2.06 0 0 1-.614-1.575q0-2.1 2.395-2.425l2.18-.31q0-1.575-1.488-1.575c-.872 0-1.714.321-2.363.903v-1.459a5.15 5.15 0 0 1 2.677-.688q2.777 0 2.777 2.74zM61.93 74.29l-1.54.216a2.44 2.44 0 0 0-1.08.346 1.02 1.02 0 0 0-.36.892.98.98 0 0 0 .33.767c.248.208.566.315.89.3a1.64 1.64 0 0 0 1.257-.526c.345-.361.533-.844.524-1.344zM70.686 77.565c-.64.36-1.363.541-2.096.525a3.53 3.53 0 0 1-2.62-1.023 3.62 3.62 0 0 1-1-2.652 4 4 0 0 1 1.079-2.919 3.86 3.86 0 0 1 2.881-1.102 4.2 4.2 0 0 1 1.771.352v1.575a2.68 2.68 0 0 0-1.634-.573 2.27 2.27 0 0 0-1.724.714 2.63 2.63 0 0 0-.676 1.87 2.5 2.5 0 0 0 .634 1.8 2.25 2.25 0 0 0 1.703.661 2.65 2.65 0 0 0 1.692-.64zM78.807 77.901h-1.661V73.88q0-2.184-1.457-2.184a1.52 1.52 0 0 0-1.23.63 2.52 2.52 0 0 0-.525 1.617v3.953h-1.671V67.024h1.671v4.75h.026a2.62 2.62 0 0 1 2.379-1.39q2.442 0 2.442 2.992zM81.51 69.008a1 1 0 0 1-.696-.268.87.87 0 0 1-.289-.677.9.9 0 0 1 .289-.682.98.98 0 0 1 .697-.273c.265-.007.523.091.717.273a.9.9 0 0 1 .294.682.88.88 0 0 1-.294.662 1 1 0 0 1-.718.283m.823 8.893h-1.66v-7.35h1.66zM90.858 77.901h-1.661V73.76q0-2.058-1.457-2.058a1.57 1.57 0 0 0-1.252.572 2.1 2.1 0 0 0-.492 1.439v4.2h-1.688v-7.35h1.672v1.218h.026a2.62 2.62 0 0 1 2.379-1.391 2.21 2.21 0 0 1 1.828.777c.462.656.684 1.451.629 2.252zM98.98 74.678h-5a2.1 2.1 0 0 0 .63 1.575 2.33 2.33 0 0 0 1.644.551 3.62 3.62 0 0 0 2.16-.704v1.345a4.9 4.9 0 0 1-2.652.63 3.27 3.27 0 0 1-2.546-1.003 4 4 0 0 1-.923-2.82 3.92 3.92 0 0 1 1.012-2.797 3.32 3.32 0 0 1 2.52-1.082 2.89 2.89 0 0 1 2.326.971c.59.77.882 1.726.823 2.693zm-1.573-1.176a2.15 2.15 0 0 0-.424-1.397 1.41 1.41 0 0 0-1.148-.525 1.6 1.6 0 0 0-1.215.525c-.346.38-.56.86-.613 1.37zM28.591 95.54h-5.69V85.25h1.703v8.852h3.982zM36.026 92.296h-5.004a2.1 2.1 0 0 0 .63 1.575 2.33 2.33 0 0 0 1.644.551 3.62 3.62 0 0 0 2.16-.703v1.344a4.9 4.9 0 0 1-2.652.63 3.27 3.27 0 0 1-2.541-1.003 4 4 0 0 1-.923-2.82 3.92 3.92 0 0 1 1.001-2.771 3.32 3.32 0 0 1 2.52-1.082 2.89 2.89 0 0 1 2.327.972c.59.769.881 1.725.822 2.693zm-1.603-1.176a2.15 2.15 0 0 0-.425-1.396 1.41 1.41 0 0 0-1.147-.525 1.61 1.61 0 0 0-1.215.525c-.346.379-.561.86-.614 1.37zM43.178 95.54h-1.614v-1.144h-.026a2.43 2.43 0 0 1-2.227 1.323 2.35 2.35 0 0 1-1.692-.588 2.06 2.06 0 0 1-.613-1.575q0-2.1 2.395-2.425l2.18-.31q0-1.575-1.489-1.575c-.872 0-1.713.32-2.363.903v-1.46a5.15 5.15 0 0 1 2.678-.687q2.782 0 2.776 2.74zm-1.603-3.611-1.54.215a2.4 2.4 0 0 0-1.08.346 1.02 1.02 0 0 0-.361.893.98.98 0 0 0 .335.766c.249.209.567.316.89.3a1.65 1.65 0 0 0 1.258-.525c.335-.366.514-.849.498-1.345zM49.319 89.776a1.38 1.38 0 0 0-.865-.236 1.48 1.48 0 0 0-1.23.656 3 3 0 0 0-.493 1.817v3.517h-1.667v-7.35h1.661v1.512h.026c.132-.465.391-.884.75-1.207.309-.28.71-.435 1.126-.436.237-.013.473.034.687.136zM56.974 95.54h-1.661v-4.142q0-2.058-1.457-2.058a1.57 1.57 0 0 0-1.252.573 2.1 2.1 0 0 0-.492 1.438v4.2H50.44V88.2h1.672v1.218h.026a2.62 2.62 0 0 1 2.379-1.391 2.21 2.21 0 0 1 1.828.777c.461.656.683 1.451.629 2.252zM59.683 86.647a1 1 0 0 1-.697-.267.87.87 0 0 1-.288-.678.9.9 0 0 1 .288-.682.98.98 0 0 1 .697-.273c.265-.007.523.091.718.273a.9.9 0 0 1 .293.682.88.88 0 0 1-.294.662 1 1 0 0 1-.717.283m.822 8.893h-1.66v-7.35h1.66zM69.035 95.54h-1.66v-4.142q0-2.058-1.457-2.058a1.57 1.57 0 0 0-1.253.573 2.1 2.1 0 0 0-.492 1.438v4.2H62.5V88.2h1.672v1.218h.026a2.62 2.62 0 0 1 2.379-1.391 2.21 2.21 0 0 1 1.828.777c.461.656.683 1.451.63 2.252zM77.665 94.952q0 4.048-4.06 4.048a6 6 0 0 1-2.5-.483v-1.496a4.6 4.6 0 0 0 2.284.688q2.62 0 2.62-2.578v-.803h-.026a2.89 2.89 0 0 1-2.21 1.393 2.88 2.88 0 0 1-2.427-.968 3.96 3.96 0 0 1-.823-2.625 4.65 4.65 0 0 1 .88-2.977 2.93 2.93 0 0 1 2.421-1.107 2.33 2.33 0 0 1 2.159 1.191h.026v-1.018h1.66zm-1.646-2.777v-.929a1.87 1.87 0 0 0-.523-1.323 1.68 1.68 0 0 0-1.279-.525 1.75 1.75 0 0 0-1.477.698 3.16 3.16 0 0 0-.524 1.959c-.028.62.157 1.231.524 1.732a1.65 1.65 0 0 0 1.357.65 1.76 1.76 0 0 0 1.399-.618c.375-.462.56-1.05.518-1.644z"/><path fill="#047FDA" d="M56.932 2H43.44v20.149h13.492z"/><path fill="#5BE6FF" d="M43.44 22.149h13.497L28.581 56.204l-3.594-13.518zM60.437 26.07l-8.147 9.791 19.506 20.343 3.595-13.518z"/><path fill="#047FDA" d="M28.58 56.204h43.216L58.97 42.812H39.72z"/></svg>
